lib/brands/icons/miro.svg

<svg xmlns="http://www.w3.org/2000/svg" fill="none" aria-hidden="true" viewBox="0 0 48 48"><g id="miro-Icon"><path id="Vector" fill="#FCD037" fill-rule="evenodd" d="M31.552 16.689L21.1438 42H16.0656L21.4862 18.8787L11.0782 42H6L11.6198 20.3709L6 6H11.0782L21.4862 17.6025L16.0656 6H21.1438L31.552 15.4132L26.1312 6H31.2095L42 13.4532L31.2095 42H26.1312L31.552 16.689Z" clip-rule="evenodd"/></g></svg>

<svg xmlns="http://www.w3.org/2000/svg" fill="none" aria-hidden="true" viewBox="0 0 48 48"><path fill="#FCD037" fill-rule="evenodd" d="M31.552 16.689 21.144 42h-5.078l5.42-23.121L11.078 42H6l5.62-21.63L6 6h5.078l10.408 11.602L16.066 6h5.078l10.408 9.413L26.132 6h5.077L42 13.453 31.21 42h-5.08l5.421-25.311Z" clip-rule="evenodd"/></svg>
